src/assets/icons/rewards_graph.svg

<svg viewBox="0 0 262 134" fill="none" xmlns="http://www.w3.org/2000/svg" xmlns:xlink="http://www.w3.org/1999/xlink">
  <rect y="1.99479" width="261.902" height="125.005" fill="white"/>
  <rect opacity="0.3" x="65.5" width="124.34" height="65.5" transform="rotate(90 65.5 0)" fill="url(#pattern0)" fill-opacity="0.3"/>
  <rect opacity="0.3" x="196.5" width="124.34" height="65.5" transform="rotate(90 196.5 0)" fill="url(#pattern1)" fill-opacity="0.3"/>
  <rect opacity="0.3" x="131" width="124.34" height="65.5" transform="rotate(90 131 0)" fill="url(#pattern2)" fill-opacity="0.3"/>
  <rect opacity="0.3" x="262" width="124.34" height="65.5" transform="rotate(90 262 0)" fill="url(#pattern3)" fill-opacity="0.3"/>
  <line opacity="0.3" x1="65.3335" y1="15.8879" x2="65.3335" y2="123.65" stroke="black" stroke-opacity="0.2"/>
  <line opacity="0.3" x1="131.451" y1="15.8879" x2="131.451" y2="123.65" stroke="black" stroke-opacity="0.2"/>
  <line opacity="0.3" x1="196.927" y1="15.8879" x2="196.927" y2="123.65" stroke="black" stroke-opacity="0.2"/>
  <path d="M226.729 114.262H230.689V115.702H225.049V111.754L226.441 110.95H229.009V108.742H226.729V109.822H225.049V108.106L226.441 107.302H229.297L230.689 108.106V111.586L229.297 112.39H226.729V114.262ZM238.785 114.958L237.393 115.762H234.117L232.725 114.958V108.046L234.117 107.242H237.393L238.785 108.046V114.958ZM234.405 108.682V114.322H237.105V108.682H234.405ZM226.321 124.642H227.893L228.745 125.134V121.942H230.389V130.762H229.033L228.745 130.27L227.893 130.762H226.321L224.929 129.958V125.446L226.321 124.642ZM228.745 129.358V126.046H226.573V129.358H228.745ZM233.598 128.338V129.382H235.29V128.338H233.598ZM233.346 130.762L231.954 129.958V127.882L233.346 127.078H235.29V126.106H232.554V124.702H235.542L236.934 125.506V130.762H236.142L235.29 130.27L234.438 130.762H233.346ZM239.201 133.102L240.305 130.282L238.013 124.702H239.657L241.133 128.23H241.157L242.549 124.702H244.193L240.821 133.102H239.201ZM250.025 127.75V129.898L248.633 130.702H245.273V129.298H248.381V128.374H246.665L245.273 127.57V125.506L246.665 124.702H249.905V126.106H246.917V126.946H248.633L250.025 127.75Z" fill="white"/>
  <path d="M138.582 107.714V116.282C138.582 116.394 138.624 116.492 138.708 116.576C138.792 116.66 138.89 116.702 139.002 116.702H140.304C140.416 116.702 140.514 116.66 140.598 116.576C140.682 116.492 140.724 116.394 140.724 116.282V107.714H142.81C142.922 107.714 143.02 107.676 143.104 107.602C143.188 107.518 143.23 107.415 143.23 107.294V106.09C143.23 105.968 143.188 105.866 143.104 105.782C143.02 105.698 142.922 105.656 142.81 105.656H136.496C136.384 105.656 136.286 105.698 136.202 105.782C136.118 105.866 136.076 105.968 136.076 106.09V107.294C136.076 107.415 136.118 107.518 136.202 107.602C136.286 107.676 136.384 107.714 136.496 107.714H138.582ZM149.494 114.644C149.382 114.644 149.284 114.686 149.2 114.77C149.116 114.854 149.074 114.952 149.074 115.064V116.282C149.074 116.394 149.116 116.492 149.2 116.576C149.284 116.66 149.382 116.702 149.494 116.702H155.808C155.92 116.702 156.018 116.66 156.102 116.576C156.186 116.492 156.228 116.394 156.228 116.282V115.064C156.228 114.952 156.186 114.854 156.102 114.77C156.018 114.686 155.92 114.644 155.808 114.644H153.806V107.714H155.808C155.92 107.714 156.018 107.676 156.102 107.602C156.186 107.518 156.228 107.415 156.228 107.294V106.09C156.228 105.968 156.186 105.866 156.102 105.782C156.018 105.698 155.92 105.656 155.808 105.656H149.494C149.382 105.656 149.284 105.698 149.2 105.782C149.116 105.866 149.074 105.968 149.074 106.09V107.294C149.074 107.415 149.116 107.518 149.2 107.602C149.284 107.676 149.382 107.714 149.494 107.714H151.51V114.644H149.494ZM141.86 124.1V131.282C141.86 131.394 141.902 131.492 141.986 131.576C142.07 131.66 142.173 131.702 142.294 131.702H143.484C143.606 131.702 143.708 131.66 143.792 131.576C143.876 131.492 143.918 131.394 143.918 131.282V121.09C143.918 120.968 143.876 120.866 143.792 120.782C143.708 120.698 143.606 120.656 143.484 120.656H142.294C142.173 120.656 142.07 120.698 141.986 120.782C141.902 120.866 141.86 120.968 141.86 121.09V121.874H140.978C140.866 121.874 140.768 121.916 140.684 122C140.6 122.084 140.558 122.182 140.558 122.294V123.162H138.738V122.294C138.738 122.182 138.696 122.084 138.612 122C138.538 121.916 138.44 121.874 138.318 121.874H137.534V121.09C137.534 120.968 137.492 120.866 137.408 120.782C137.324 120.698 137.222 120.656 137.1 120.656H135.896C135.775 120.656 135.672 120.698 135.588 120.782C135.504 120.866 135.462 120.968 135.462 121.09V131.282C135.462 131.394 135.504 131.492 135.588 131.576C135.672 131.66 135.775 131.702 135.896 131.702H137.1C137.222 131.702 137.324 131.66 137.408 131.576C137.492 131.492 137.534 131.394 137.534 131.282V124.016H138.052V124.8C138.052 124.921 138.094 125.024 138.178 125.108C138.262 125.192 138.36 125.234 138.472 125.234H140.978C141.1 125.234 141.198 125.192 141.272 125.108C141.356 125.024 141.398 124.921 141.398 124.8V124.1H141.86ZM150.89 120.656C150.769 120.656 150.666 120.698 150.582 120.782C150.498 120.866 150.456 120.968 150.456 121.09V131.282C150.456 131.394 150.498 131.492 150.582 131.576C150.666 131.66 150.769 131.702 150.89 131.702H158.478C158.6 131.702 158.702 131.66 158.786 131.576C158.87 131.492 158.912 131.394 158.912 131.282V130.064C158.912 129.952 158.87 129.854 158.786 129.77C158.702 129.686 158.6 129.644 158.478 129.644H152.598V127.026H155.902C156.014 127.026 156.112 126.988 156.196 126.914C156.28 126.83 156.322 126.727 156.322 126.606V125.304C156.322 125.182 156.28 125.084 156.196 125.01C156.112 124.926 156.014 124.884 155.902 124.884H152.598V122.714H158.478C158.6 122.714 158.702 122.676 158.786 122.602C158.87 122.518 158.912 122.415 158.912 122.294V121.09C158.912 120.968 158.87 120.866 158.786 120.782C158.702 120.698 158.6 120.656 158.478 120.656H150.89Z" fill="white"/>
  <path d="M29.4814 76.1388L154.978 61.5413L154.632 58.5614L29.1348 73.1589L29.4814 76.1388ZM177.562 55.5418L236.303 30.4635L235.125 27.7045L176.385 52.7827L177.562 55.5418ZM154.978 61.5413C162.755 60.6367 170.362 58.6161 177.562 55.5418L176.385 52.7827C169.449 55.7438 162.122 57.69 154.632 58.5614L154.978 61.5413Z" fill="#BE1E2D"/>
  <path d="M29.3085 9.69467V92.0992L243.821 92.0992" stroke="black" stroke-width="3"/>
  <g clip-path="url(#clip0)">
  <path d="M236.399 110.054L236.403 107.195L238.247 107.197L238.252 105.863L240.663 105.865V104.371L238.106 104.369C237.769 104.369 237.452 104.469 237.188 104.657C236.866 104.892 236.687 105.223 236.687 105.59V105.701H236.283H236.278C235.925 105.701 235.601 105.801 235.342 105.989C235.018 106.222 234.841 106.549 234.839 106.905L234.834 110.054H236.399Z" fill="black"/>
  <path d="M238.554 115.872H236.631L236.636 113.42H235.005L235 116.185C235 116.581 235.184 116.941 235.522 117.2C235.795 117.41 236.133 117.521 236.501 117.521H236.923V117.66C236.923 118.053 237.107 118.413 237.445 118.675C237.718 118.884 238.048 118.993 238.4 118.993L241.09 118.995V117.346L238.554 117.344V115.872Z" fill="black"/>
  <path d="M245.472 107.201L247.066 107.203L247.062 110.054H248.429L248.433 106.919C248.433 106.56 248.279 106.233 247.995 105.998C247.767 105.808 247.484 105.708 247.177 105.708H246.841V105.597C246.841 105.227 246.687 104.897 246.404 104.662C246.175 104.472 245.898 104.371 245.603 104.371L243.576 104.369V105.864L245.474 105.866L245.472 107.201Z" fill="black"/>
  <path d="M247.063 113.464L247.061 115.972L245.464 115.969L245.462 117.469L243.576 117.467V119.146L245.589 119.149H245.591C245.887 119.149 246.165 119.036 246.392 118.825C246.676 118.563 246.832 118.198 246.832 117.793V117.649H247.169H247.171C247.478 117.649 247.762 117.536 247.991 117.325C248.272 117.063 248.429 116.696 248.431 116.296L248.433 113.464H247.063Z" fill="black"/>
  </g>
  <rect x="1.50098" y="1.50002" width="258.902" height="124" stroke="black" stroke-width="3"/>
  <path d="M14.576 71.488C14.576 71.592 14.612 71.68 14.684 71.752C14.756 71.824 14.84 71.86 14.936 71.86L22.64 71.86C22.736 71.86 22.82 71.824 22.892 71.752C22.964 71.68 23 71.592 23 71.488L23 70.456C23 70.352 22.964 70.264 22.892 70.192C22.82 70.12 22.736 70.084 22.64 70.084L19.808 70.084L19.808 66.376L22.64 66.376C22.736 66.376 22.82 66.34 22.892 66.268C22.964 66.196 23 66.108 23 66.004L23 64.984C23 64.88 22.964 64.792 22.892 64.72C22.82 64.648 22.736 64.612 22.64 64.612L15.008 64.612C14.904 64.612 14.82 64.648 14.756 64.72C14.684 64.792 14.648 64.88 14.648 64.984L14.648 65.728L13.904 65.728C13.8 65.728 13.712 65.764 13.64 65.836C13.568 65.9 13.532 65.984 13.532 66.088L13.532 70.456C13.532 70.552 13.568 70.636 13.64 70.708C13.712 70.78 13.8 70.816 13.904 70.816L14.576 70.816L14.576 71.488ZM17.84 70.024L15.296 70.024L15.296 66.376L17.84 66.376L17.84 70.024ZM13.532 57.945C13.532 58.049 13.568 58.137 13.64 58.209C13.712 58.281 13.8 58.317 13.904 58.317L22.64 58.317C22.736 58.317 22.82 58.281 22.892 58.209C22.964 58.137 23 58.049 23 57.945L23 56.913C23 56.809 22.964 56.721 22.892 56.649C22.82 56.577 22.736 56.541 22.64 56.541L19.748 56.541L19.748 52.461C19.748 52.365 19.712 52.281 19.64 52.209C19.568 52.137 19.48 52.101 19.376 52.101L18.632 52.101L18.632 51.441C18.632 51.337 18.6 51.249 18.536 51.177C18.464 51.105 18.376 51.069 18.272 51.069L15.008 51.069C14.904 51.069 14.82 51.105 14.756 51.177C14.684 51.249 14.648 51.337 14.648 51.441L14.648 52.185L13.904 52.185C13.8 52.185 13.712 52.221 13.64 52.293C13.568 52.357 13.532 52.441 13.532 52.545L13.532 57.945ZM17.84 56.481L15.296 56.481L15.296 52.833L17.84 52.833L17.84 56.481ZM13.532 45.0246C13.532 45.1206 13.568 45.2046 13.64 45.2766C13.712 45.3486 13.8 45.3846 13.904 45.3846L17.084 45.3846C17.188 45.3846 17.276 45.3486 17.348 45.2766C17.42 45.2046 17.456 45.1206 17.456 45.0246L17.456 44.2806L18.2 44.2806C18.296 44.2806 18.38 44.2446 18.452 44.1726C18.524 44.1006 18.56 44.0166 18.56 43.9206L18.56 43.1646L22.64 43.1646C22.736 43.1646 22.82 43.1326 22.892 43.0686C22.964 42.9966 23 42.9086 23 42.8046L23 41.7606C23 41.6646 22.964 41.5806 22.892 41.5086C22.82 41.4366 22.736 41.4006 22.64 41.4006L18.632 41.4006L18.632 40.6566C18.632 40.5606 18.6 40.4766 18.536 40.4046C18.464 40.3326 18.376 40.2966 18.272 40.2966L17.516 40.2966L17.516 39.6126C17.516 39.5166 17.48 39.4326 17.408 39.3606C17.336 39.2886 17.252 39.2526 17.156 39.2526L13.904 39.2526C13.8 39.2526 13.712 39.2886 13.64 39.3606C13.568 39.4326 13.532 39.5166 13.532 39.6126L13.532 40.6566C13.532 40.7606 13.568 40.8486 13.64 40.9206C13.712 40.9846 13.8 41.0166 13.904 41.0166L16.796 41.0166L16.796 41.7606C16.796 41.8646 16.832 41.9526 16.904 42.0246C16.968 42.0966 17.052 42.1326 17.156 42.1326L17.912 42.1326L17.912 42.5766L17.228 42.5766C17.132 42.5766 17.048 42.6126 16.976 42.6846C16.904 42.7566 16.868 42.8406 16.868 42.9366L16.868 43.6806L13.904 43.6806C13.8 43.6806 13.712 43.7166 13.64 43.7886C13.568 43.8606 13.532 43.9446 13.532 44.0406L13.532 45.0246Z" fill="black"/>
  <path d="M51.24 99.296V106.64C51.24 106.736 51.276 106.82 51.348 106.892C51.42 106.964 51.504 107 51.6 107H52.716C52.812 107 52.896 106.964 52.968 106.892C53.04 106.82 53.076 106.736 53.076 106.64V99.296H54.864C54.96 99.296 55.044 99.264 55.116 99.2C55.188 99.128 55.224 99.04 55.224 98.936V97.904C55.224 97.8 55.188 97.712 55.116 97.64C55.044 97.568 54.96 97.532 54.864 97.532H49.452C49.356 97.532 49.272 97.568 49.2 97.64C49.128 97.712 49.092 97.8 49.092 97.904V98.936C49.092 99.04 49.128 99.128 49.2 99.2C49.272 99.264 49.356 99.296 49.452 99.296H51.24ZM61.3075 105.236C61.2115 105.236 61.1275 105.272 61.0555 105.344C60.9835 105.416 60.9475 105.5 60.9475 105.596V106.64C60.9475 106.736 60.9835 106.82 61.0555 106.892C61.1275 106.964 61.2115 107 61.3075 107H66.7195C66.8155 107 66.8995 106.964 66.9715 106.892C67.0435 106.82 67.0795 106.736 67.0795 106.64V105.596C67.0795 105.5 67.0435 105.416 66.9715 105.344C66.8995 105.272 66.8155 105.236 66.7195 105.236H65.0035V99.296H66.7195C66.8155 99.296 66.8995 99.264 66.9715 99.2C67.0435 99.128 67.0795 99.04 67.0795 98.936V97.904C67.0795 97.8 67.0435 97.712 66.9715 97.64C66.8995 97.568 66.8155 97.532 66.7195 97.532H61.3075C61.2115 97.532 61.1275 97.568 61.0555 97.64C60.9835 97.712 60.9475 97.8 60.9475 97.904V98.936C60.9475 99.04 60.9835 99.128 61.0555 99.2C61.1275 99.264 61.2115 99.296 61.3075 99.296H63.0355V105.236H61.3075ZM78.6396 100.484V106.64C78.6396 106.736 78.6756 106.82 78.7476 106.892C78.8196 106.964 78.9076 107 79.0116 107H80.0316C80.1356 107 80.2236 106.964 80.2956 106.892C80.3676 106.82 80.4036 106.736 80.4036 106.64V97.904C80.4036 97.8 80.3676 97.712 80.2956 97.64C80.2236 97.568 80.1356 97.532 80.0316 97.532H79.0116C78.9076 97.532 78.8196 97.568 78.7476 97.64C78.6756 97.712 78.6396 97.8 78.6396 97.904V98.576H77.8836C77.7876 98.576 77.7036 98.612 77.6316 98.684C77.5596 98.756 77.5236 98.84 77.5236 98.936V99.68H75.9636V98.936C75.9636 98.84 75.9276 98.756 75.8556 98.684C75.7916 98.612 75.7076 98.576 75.6036 98.576H74.9316V97.904C74.9316 97.8 74.8956 97.712 74.8236 97.64C74.7516 97.568 74.6636 97.532 74.5596 97.532H73.5276C73.4236 97.532 73.3356 97.568 73.2636 97.64C73.1916 97.712 73.1556 97.8 73.1556 97.904V106.64C73.1556 106.736 73.1916 106.82 73.2636 106.892C73.3356 106.964 73.4236 107 73.5276 107H74.5596C74.6636 107 74.7516 106.964 74.8236 106.892C74.8956 106.82 74.9316 106.736 74.9316 106.64V100.412H75.3756V101.084C75.3756 101.188 75.4116 101.276 75.4836 101.348C75.5556 101.42 75.6396 101.456 75.7356 101.456H77.8836C77.9876 101.456 78.0716 101.42 78.1356 101.348C78.2076 101.276 78.2436 101.188 78.2436 101.084V100.484H78.6396ZM87.094 97.532C86.99 97.532 86.902 97.568 86.83 97.64C86.758 97.712 86.722 97.8 86.722 97.904V106.64C86.722 106.736 86.758 106.82 86.83 106.892C86.902 106.964 86.99 107 87.094 107H93.598C93.702 107 93.79 106.964 93.862 106.892C93.934 106.82 93.97 106.736 93.97 106.64V105.596C93.97 105.5 93.934 105.416 93.862 105.344C93.79 105.272 93.702 105.236 93.598 105.236H88.558V102.992H91.39C91.486 102.992 91.57 102.96 91.642 102.896C91.714 102.824 91.75 102.736 91.75 102.632V101.516C91.75 101.412 91.714 101.328 91.642 101.264C91.57 101.192 91.486 101.156 91.39 101.156H88.558V99.296H93.598C93.702 99.296 93.79 99.264 93.862 99.2C93.934 99.128 93.97 99.04 93.97 98.936V97.904C93.97 97.8 93.934 97.712 93.862 97.64C93.79 97.568 93.702 97.532 93.598 97.532H87.094Z" fill="black"/>
  <defs>
  <pattern id="pattern0" patternContentUnits="objectBoundingBox" width="1" height="1">
  <use xlink:href="#image0" transform="translate(0 -0.0343788) scale(0.001 0.00189833)"/>
  </pattern>
  <pattern id="pattern1" patternContentUnits="objectBoundingBox" width="1" height="1">
  <use xlink:href="#image0" transform="translate(0 -0.0343788) scale(0.001 0.00189833)"/>
  </pattern>
  <pattern id="pattern2" patternContentUnits="objectBoundingBox" width="1" height="1">
  <use xlink:href="#image0" transform="translate(0 -0.0343788) scale(0.001 0.00189833)"/>
  </pattern>
  <pattern id="pattern3" patternContentUnits="objectBoundingBox" width="1" height="1">
  <use xlink:href="#image0" transform="translate(0 -0.0343788) scale(0.001 0.00189833)"/>
  </pattern>
  <clipPath id="clip0">
  <rect width="15" height="15" fill="white" transform="translate(235 104)"/>
  </clipPath>
  </defs>
</svg>

<svg viewBox="0 0 262 134" fill="none" xmlns="http://www.w3.org/2000/svg" xmlns:xlink="http://www.w3.org/1999/xlink"><path fill="#fff" d="M0 1.995h261.902V127H0z"/><path opacity=".3" transform="rotate(90 65.5 0)" fill="url(#a)" fill-opacity=".3" d="M65.5 0h124.34v65.5H65.5z"/><path opacity=".3" transform="rotate(90 196.5 0)" fill="url(#b)" fill-opacity=".3" d="M196.5 0h124.34v65.5H196.5z"/><path opacity=".3" transform="rotate(90 131 0)" fill="url(#c)" fill-opacity=".3" d="M131 0h124.34v65.5H131z"/><path opacity=".3" transform="rotate(90 262 0)" fill="url(#d)" fill-opacity=".3" d="M262 0h124.34v65.5H262z"/><path opacity=".3" stroke="#000" stroke-opacity=".2" d="M65.334 15.888V123.65M131.451 15.888V123.65M196.927 15.888V123.65"/><path d="M226.729 114.262h3.96v1.44h-5.64v-3.948l1.392-.804h2.568v-2.208h-2.28v1.08h-1.68v-1.716l1.392-.804h2.856l1.392.804v3.48l-1.392.804h-2.568v1.872zm12.056.696-1.392.804h-3.276l-1.392-.804v-6.912l1.392-.804h3.276l1.392.804v6.912zm-4.38-6.276v5.64h2.7v-5.64h-2.7zm-8.084 15.96h1.572l.852.492v-3.192h1.644v8.82h-1.356l-.288-.492-.852.492h-1.572l-1.392-.804v-4.512l1.392-.804zm2.424 4.716v-3.312h-2.172v3.312h2.172zm4.853-1.02v1.044h1.692v-1.044h-1.692zm-.252 2.424-1.392-.804v-2.076l1.392-.804h1.944v-.972h-2.736v-1.404h2.988l1.392.804v5.256h-.792l-.852-.492-.852.492h-1.092zm5.855 2.34 1.104-2.82-2.292-5.58h1.644l1.476 3.528h.024l1.392-3.528h1.644l-3.372 8.4h-1.62zm10.824-5.352v2.148l-1.392.804h-3.36v-1.404h3.108v-.924h-1.716l-1.392-.804v-2.064l1.392-.804h3.24v1.404h-2.988v.84h1.716l1.392.804zM138.582 107.714v8.568c0 .112.042.21.126.294a.403.403 0 0 0 .294.126h1.302c.112 0 .21-.042.294-.126a.403.403 0 0 0 .126-.294v-8.568h2.086c.112 0 .21-.038.294-.112a.42.42 0 0 0 .126-.308v-1.204a.418.418 0 0 0-.126-.308.403.403 0 0 0-.294-.126h-6.314a.403.403 0 0 0-.294.126.418.418 0 0 0-.126.308v1.204a.42.42 0 0 0 .126.308.432.432 0 0 0 .294.112h2.086zm10.912 6.93a.403.403 0 0 0-.294.126.403.403 0 0 0-.126.294v1.218c0 .112.042.21.126.294a.403.403 0 0 0 .294.126h6.314c.112 0 .21-.042.294-.126a.403.403 0 0 0 .126-.294v-1.218a.403.403 0 0 0-.126-.294.403.403 0 0 0-.294-.126h-2.002v-6.93h2.002c.112 0 .21-.038.294-.112a.42.42 0 0 0 .126-.308v-1.204a.418.418 0 0 0-.126-.308.403.403 0 0 0-.294-.126h-6.314a.403.403 0 0 0-.294.126.418.418 0 0 0-.126.308v1.204a.42.42 0 0 0 .126.308.432.432 0 0 0 .294.112h2.016v6.93h-2.016zm-7.634 9.456v7.182c0 .112.042.21.126.294a.42.42 0 0 0 .308.126h1.19a.418.418 0 0 0 .308-.126.403.403 0 0 0 .126-.294V121.09a.418.418 0 0 0-.126-.308.418.418 0 0 0-.308-.126h-1.19a.42.42 0 0 0-.308.126.418.418 0 0 0-.126.308v.784h-.882a.403.403 0 0 0-.294.126.403.403 0 0 0-.126.294v.868h-1.82v-.868a.403.403 0 0 0-.126-.294.373.373 0 0 0-.294-.126h-.784v-.784a.418.418 0 0 0-.126-.308.418.418 0 0 0-.308-.126h-1.204a.42.42 0 0 0-.308.126.418.418 0 0 0-.126.308v10.192c0 .112.042.21.126.294a.42.42 0 0 0 .308.126h1.204a.418.418 0 0 0 .308-.126.403.403 0 0 0 .126-.294v-7.266h.518v.784a.42.42 0 0 0 .126.308.403.403 0 0 0 .294.126h2.506c.122 0 .22-.042.294-.126a.42.42 0 0 0 .126-.308v-.7h.462zm9.03-3.444a.42.42 0 0 0-.308.126.418.418 0 0 0-.126.308v10.192c0 .112.042.21.126.294a.42.42 0 0 0 .308.126h7.588a.418.418 0 0 0 .308-.126.403.403 0 0 0 .126-.294v-1.218a.403.403 0 0 0-.126-.294.418.418 0 0 0-.308-.126h-5.88v-2.618h3.304c.112 0 .21-.038.294-.112a.42.42 0 0 0 .126-.308v-1.302a.373.373 0 0 0-.126-.294.403.403 0 0 0-.294-.126h-3.304v-2.17h5.88a.45.45 0 0 0 .308-.112.42.42 0 0 0 .126-.308v-1.204a.418.418 0 0 0-.126-.308.418.418 0 0 0-.308-.126h-7.588z" fill="#fff"/><path d="M29.481 76.139 154.978 61.54l-.346-2.98L29.135 73.16l.346 2.98zm148.081-20.597 58.741-25.079-1.178-2.759-58.74 25.079 1.177 2.759zm-22.584 6a81.49 81.49 0 0 0 22.584-6l-1.177-2.76a78.514 78.514 0 0 1-21.753 5.78l.346 2.98z" fill="#BE1E2D"/><path d="M29.308 9.695v82.404h214.513" stroke="#000" stroke-width="3"/><g clip-path="url(#e)" fill="#000"><path d="m236.399 110.054.004-2.859 1.844.002.005-1.334 2.411.002v-1.494l-2.557-.002c-.337 0-.654.1-.918.288-.322.235-.501.566-.501.933v.111H236.278c-.353 0-.677.1-.936.288-.324.233-.501.56-.503.916l-.005 3.149h1.565zM238.554 115.872h-1.923l.005-2.452h-1.631l-.005 2.765c0 .396.184.756.522 1.015.273.21.611.321.979.321h.422v.139c0 .393.184.753.522 1.015.273.209.603.318.955.318l2.69.002v-1.649l-2.536-.002v-1.472zM245.472 107.201l1.594.002-.004 2.851h1.367l.004-3.135c0-.359-.154-.686-.438-.921a1.26 1.26 0 0 0-.818-.29h-.336v-.111c0-.37-.154-.7-.437-.935a1.241 1.241 0 0 0-.801-.291l-2.027-.002v1.495l1.898.002-.002 1.335zM247.063 113.464l-.002 2.508-1.597-.003-.002 1.5-1.886-.002v1.679l2.013.003h.002c.296 0 .574-.113.801-.324.284-.262.44-.627.44-1.032v-.144h.339c.307 0 .591-.113.82-.324.281-.262.438-.629.44-1.029l.002-2.832h-1.37z"/></g><path stroke="#000" stroke-width="3" d="M1.501 1.5h258.902v124H1.501z"/><path d="M14.576 71.488a.36.36 0 0 0 .108.264.345.345 0 0 0 .252.108h7.704c.096 0 .18-.036.252-.108a.36.36 0 0 0 .108-.264v-1.032a.36.36 0 0 0-.108-.264.345.345 0 0 0-.252-.108h-2.832v-3.708h2.832c.096 0 .18-.036.252-.108a.36.36 0 0 0 .108-.264v-1.02a.36.36 0 0 0-.108-.264.345.345 0 0 0-.252-.108h-7.632a.321.321 0 0 0-.252.108.36.36 0 0 0-.108.264v.744h-.744a.36.36 0 0 0-.264.108.321.321 0 0 0-.108.252v4.368c0 .096.036.18.108.252a.36.36 0 0 0 .264.108h.672v.672zm3.264-1.464h-2.544v-3.648h2.544v3.648zm-4.308-12.079a.36.36 0 0 0 .108.264.36.36 0 0 0 .264.108h8.736c.096 0 .18-.036.252-.108a.36.36 0 0 0 .108-.264v-1.032a.36.36 0 0 0-.108-.264.345.345 0 0 0-.252-.108h-2.892v-4.08a.345.345 0 0 0-.108-.252.36.36 0 0 0-.264-.108h-.744v-.66a.383.383 0 0 0-.096-.264.36.36 0 0 0-.264-.108h-3.264a.321.321 0 0 0-.252.108.36.36 0 0 0-.108.264v.744h-.744a.36.36 0 0 0-.264.108.321.321 0 0 0-.108.252v5.4zm4.308-1.464h-2.544v-3.648h2.544v3.648zm-4.308-11.456c0 .096.036.18.108.252a.36.36 0 0 0 .264.108h3.18a.36.36 0 0 0 .264-.108.345.345 0 0 0 .108-.252v-.744h.744c.096 0 .18-.036.252-.108a.345.345 0 0 0 .108-.252v-.756h4.08c.096 0 .18-.032.252-.096a.36.36 0 0 0 .108-.264V41.76a.345.345 0 0 0-.108-.252.345.345 0 0 0-.252-.108h-4.008v-.744a.367.367 0 0 0-.096-.252.36.36 0 0 0-.264-.108h-.756v-.684a.345.345 0 0 0-.108-.252.345.345 0 0 0-.252-.108h-3.252a.36.36 0 0 0-.264.108.345.345 0 0 0-.108.252v1.044a.36.36 0 0 0 .108.264c.072.064.16.096.264.096h2.892v.744a.36.36 0 0 0 .108.264.321.321 0 0 0 .252.108h.756v.444h-.684a.345.345 0 0 0-.252.108.345.345 0 0 0-.108.252v.744h-2.964a.36.36 0 0 0-.264.108.345.345 0 0 0-.108.252v.984zM51.24 99.296v7.344c0 .096.036.18.108.252a.345.345 0 0 0 .252.108h1.116c.096 0 .18-.036.252-.108a.345.345 0 0 0 .108-.252v-7.344h1.788c.096 0 .18-.032.252-.096a.36.36 0 0 0 .108-.264v-1.032a.36.36 0 0 0-.108-.264.345.345 0 0 0-.252-.108h-5.412a.345.345 0 0 0-.252.108.36.36 0 0 0-.108.264v1.032a.36.36 0 0 0 .108.264.367.367 0 0 0 .252.096h1.788zm10.067 5.94a.345.345 0 0 0-.252.108.345.345 0 0 0-.108.252v1.044c0 .096.036.18.108.252a.345.345 0 0 0 .252.108h5.412c.097 0 .18-.036.253-.108a.345.345 0 0 0 .108-.252v-1.044a.345.345 0 0 0-.108-.252.345.345 0 0 0-.252-.108h-1.716v-5.94h1.715c.097 0 .18-.032.253-.096a.36.36 0 0 0 .108-.264v-1.032a.36.36 0 0 0-.108-.264.345.345 0 0 0-.252-.108h-5.413a.345.345 0 0 0-.252.108.36.36 0 0 0-.108.264v1.032a.36.36 0 0 0 .108.264.367.367 0 0 0 .252.096h1.728v5.94h-1.727zm17.333-4.752v6.156c0 .096.036.18.108.252a.36.36 0 0 0 .264.108h1.02a.36.36 0 0 0 .264-.108.345.345 0 0 0 .108-.252v-8.736a.36.36 0 0 0-.108-.264.36.36 0 0 0-.264-.108h-1.02a.36.36 0 0 0-.264.108.36.36 0 0 0-.108.264v.672h-.756a.345.345 0 0 0-.252.108.345.345 0 0 0-.108.252v.744h-1.56v-.744a.345.345 0 0 0-.108-.252.321.321 0 0 0-.252-.108h-.672v-.672a.36.36 0 0 0-.108-.264.36.36 0 0 0-.264-.108h-1.032a.36.36 0 0 0-.264.108.36.36 0 0 0-.108.264v8.736c0 .096.036.18.108.252a.36.36 0 0 0 .264.108h1.032a.36.36 0 0 0 .264-.108.345.345 0 0 0 .108-.252v-6.228h.444v.672a.36.36 0 0 0 .108.264.345.345 0 0 0 .252.108h2.148a.321.321 0 0 0 .252-.108.36.36 0 0 0 .108-.264v-.6h.396zm8.454-2.952a.36.36 0 0 0-.264.108.36.36 0 0 0-.108.264v8.736c0 .096.036.18.108.252a.36.36 0 0 0 .264.108h6.504a.36.36 0 0 0 .264-.108.345.345 0 0 0 .108-.252v-1.044a.345.345 0 0 0-.108-.252.36.36 0 0 0-.264-.108h-5.04v-2.244h2.832c.096 0 .18-.032.252-.096a.36.36 0 0 0 .108-.264v-1.116a.321.321 0 0 0-.108-.252.345.345 0 0 0-.252-.108h-2.832v-1.86h5.04a.383.383 0 0 0 .264-.096.36.36 0 0 0 .108-.264v-1.032a.36.36 0 0 0-.108-.264.36.36 0 0 0-.264-.108h-6.504z" fill="#000"/><defs><pattern id="a" patternContentUnits="objectBoundingBox" width="1" height="1"><use xlink:href="#image0" transform="matrix(.001 0 0 .0019 0 -.034)"/></pattern><pattern id="b" patternContentUnits="objectBoundingBox" width="1" height="1"><use xlink:href="#image0" transform="matrix(.001 0 0 .0019 0 -.034)"/></pattern><pattern id="c" patternContentUnits="objectBoundingBox" width="1" height="1"><use xlink:href="#image0" transform="matrix(.001 0 0 .0019 0 -.034)"/></pattern><pattern id="d" patternContentUnits="objectBoundingBox" width="1" height="1"><use xlink:href="#image0" transform="matrix(.001 0 0 .0019 0 -.034)"/></pattern><clipPath id="e"><path fill="#fff" transform="translate(235 104)" d="M0 0h15v15H0z"/></clipPath></defs></svg>
